X: 27335
T: Mist Of Sliabh Luachra, The
R: reel
M: 4/4
K: Dmajor
|:F2 AF DFAF|DFAF EDB,A,|F2 AF DFAF|1 dBAF EFD2:|2 AFEF D3F||
|:A3B AFEF|ABde fedB|A3B AFEF|BFAF E2 D2:|

